; generated by Slic3r 1.1.7 on 2015-02-26 at 06:51:36

; perimeters extrusion width = 0.50mm
; infill extrusion width = 0.52mm
; solid infill extrusion width = 0.52mm
; top infill extrusion width = 0.52mm

G21 ; set units to millimeters
M107
M104 S200 ; set temperature
G28 ; home all axes
G1 Z5 F5000 ; lift nozzle

M109 S200 ; wait for temperature to be reached
G90 ; use absolute coordinates
G92 E0
M82 ; use absolute distances for extrusion
G1 F1800.000 E-1.00000
G92 E0
G1 Z0.350 F7800.000
G1 X77.429 Y79.804 F7800.000
G1 E1.00000 F1800.000
G1 X78.424 Y78.839 E1.04512 F1080.000
G1 X79.750 Y77.700 E1.10197
G1 X81.144 Y76.644 E1.15889
G1 X82.600 Y75.675 E1.21578
G1 X84.148 Y74.777 E1.27401
G1 X85.673 Y74.012 E1.32952
G1 X87.281 Y73.324 E1.38642
G1 X88.968 Y72.724 E1.44466
G1 X90.605 Y72.249 E1.50014
G1 X92.312 Y71.865 E1.55707
G1 X94.035 Y71.586 E1.61383
G1 X95.557 Y71.427 E1.66363
G1 X97.098 Y71.352 E1.71384
G1 X97.614 Y71.346 E1.73061
G1 X99.081 Y71.374 E1.77836 F1080.000
G1 X100.637 Y71.491 E1.82911
G1 X102.743 Y71.784 E1.89830
G1 X104.497 Y72.153 E1.95663
G1 X106.141 Y72.603 E2.01207
G1 X107.798 Y73.166 E2.06901
G1 X109.414 Y73.829 E2.12586
G1 X111.027 Y74.611 E2.18417
G1 X112.514 Y75.445 E2.23963
G1 X113.983 Y76.390 E2.29646
G1 X115.392 Y77.424 E2.35333
G1 X116.737 Y78.543 E2.41024
G1 X118.010 Y79.741 E2.46712
G1 X119.207 Y81.014 E2.52399
G1 X120.299 Y82.323 E2.57943
G1 X129.779 Y95.001 E3.09447
G1 X129.964 Y95.346 E3.10723
G1 X130.463 Y96.552 E3.14969
G1 X130.577 Y96.927 E3.16244
G1 X130.831 Y98.207 E3.20490
G1 X130.902 Y99.250 E3.23890
G1 X130.870 Y101.402 E3.30894
G1 X130.831 Y101.793 E3.32171
G1 X130.577 Y103.073 E3.36416
G1 X130.463 Y103.448 E3.37693
G1 X129.964 Y104.653 E3.41937
G1 X129.800 Y104.959 E3.43066
G1 X129.219 Y105.875 E3.46595
G1 X120.077 Y117.955 E3.95882
G1 X118.940 Y119.283 E4.01570
G1 X118.037 Y120.231 E4.05831
G1 X117.725 Y120.540 E4.07259
G1 X116.435 Y121.720 E4.12948
G1 X115.076 Y122.820 E4.18636
G1 X113.652 Y123.834 E4.24325
G1 X112.168 Y124.760 E4.30013
G1 X111.023 Y125.392 E4.34270
G1 X110.632 Y125.593 E4.35702
G1 X109.047 Y126.332 E4.41390
G1 X107.420 Y126.972 E4.47079
G1 X106.178 Y127.385 E4.51336
G1 X105.757 Y127.512 E4.52767
G1 X104.064 Y127.949 E4.58456
G1 X102.348 Y128.283 E4.64144
G1 X100.716 Y128.502 E4.69500
G1 X99.303 Y128.612 E4.74112
G1 X97.274 Y128.653 E4.80714
G1 X95.374 Y128.556 E4.86904
G1 X93.639 Y128.359 E4.92587
G1 X92.350 Y128.141 E4.96840
G1 X91.917 Y128.056 E4.98276
G1 X90.217 Y127.648 E5.03964
G1 X88.544 Y127.137 E5.09652
G1 X87.318 Y126.689 E5.13902
G1 X86.906 Y126.526 E5.15341
G1 X85.309 Y125.815 E5.21030
G1 X83.758 Y125.009 E5.26718
G1 X82.633 Y124.345 E5.30966
G1 X82.258 Y124.109 E5.32407
G1 X80.817 Y123.120 E5.38095
G1 X79.438 Y122.045 E5.43784
G1 X78.454 Y121.187 E5.48032
G1 X78.128 Y120.887 E5.49472
G1 X76.891 Y119.652 E5.55161
G1 X75.731 Y118.343 E5.60849
G1 X74.653 Y116.967 E5.66538
G1 X73.906 Y115.898 E5.70781
G1 X73.662 Y115.527 E5.72227
G1 X72.759 Y114.029 E5.77915
G1 X71.950 Y112.479 E5.83603
G1 X71.237 Y110.883 E5.89292
G1 X70.770 Y109.664 E5.93539
G1 X70.623 Y109.246 E5.94981
G1 X70.109 Y107.575 E6.00669
G1 X69.699 Y105.875 E6.06357
G1 X69.393 Y104.154 E6.12046
G1 X69.192 Y102.417 E6.17734
G1 X69.098 Y100.671 E6.23423
G1 X69.110 Y98.923 E6.29110
G1 X69.229 Y97.179 E6.34797
G1 X69.455 Y95.445 E6.40488
G1 X69.785 Y93.730 E6.46170
G1 X70.219 Y92.035 E6.51862
G1 X70.771 Y90.334 E6.57680
G1 X71.394 Y88.743 E6.63239
G1 X72.129 Y87.158 E6.68922
G1 X72.981 Y85.585 E6.74745
G1 X73.883 Y84.134 E6.80302
G1 X74.895 Y82.709 E6.85991
G1 X75.992 Y81.348 E6.91677
G1 X77.169 Y80.056 E6.97363
G1 X77.375 Y79.857 E6.98296
G1 F1800.000 E5.98296
G92 E0
G1 X121.719 Y101.100 F7800.000
G1 E1.00000 F1800.000
G1 X119.374 Y101.100 E1.07631 F378.000
G1 X119.394 Y100.239 E1.10431
G1 X119.374 Y98.900 E1.14790
G1 X121.719 Y98.900 E1.22420
G1 X121.719 Y101.025 E1.29334
G1 X121.719 Y101.600 F7800.000
G1 X118.064 Y100.983 F7800.000
G1 X118.053 Y101.304 E1.30379 F378.000
G1 X117.928 Y102.602 E1.34624
G1 X117.720 Y103.890 E1.38868
G1 X117.430 Y105.162 E1.43112
G1 X117.058 Y106.413 E1.47356
G1 X116.608 Y107.637 E1.51601
G1 X116.080 Y108.830 E1.55845
G1 X115.499 Y109.943 E1.59931
G1 X114.800 Y111.102 E1.64333
G1 X114.054 Y112.172 E1.68577
G1 X113.240 Y113.192 E1.72821
G1 X112.363 Y114.157 E1.77066
G1 X111.426 Y115.065 E1.81310
G1 X110.433 Y115.910 E1.85554
G1 X109.427 Y116.662 E1.89640
G1 X108.294 Y117.402 E1.94042
G1 X107.158 Y118.042 E1.98287
G1 X105.982 Y118.608 E2.02531
G1 X104.773 Y119.098 E2.06775
G1 X103.535 Y119.509 E2.11019
G1 X102.273 Y119.840 E2.15264
G1 X100.993 Y120.089 E2.19508
G1 X99.704 Y120.256 E2.23737
G1 X98.462 Y120.337 E2.27786
G1 X97.091 Y120.340 E2.32245
G1 X95.786 Y120.256 E2.36500
G1 X94.497 Y120.089 E2.40729
G1 X93.217 Y119.840 E2.44973
G1 X91.955 Y119.509 E2.49217
G1 X90.717 Y119.098 E2.53462
G1 X89.507 Y118.608 E2.57706
G1 X88.332 Y118.042 E2.61950
G1 X87.196 Y117.402 E2.66194
G1 X86.102 Y116.691 E2.70439
G1 X85.057 Y115.910 E2.74683
G1 X84.063 Y115.065 E2.78927
G1 X83.126 Y114.157 E2.83171
G1 X82.249 Y113.192 E2.87416
G1 X81.436 Y112.172 E2.91660
G1 X80.690 Y111.102 E2.95904
G1 X80.013 Y109.986 E3.00148
G1 X79.410 Y108.830 E3.04393
G1 X78.882 Y107.637 E3.08637
G1 X78.448 Y106.458 E3.12723
G1 X78.060 Y105.162 E3.17125
G1 X77.770 Y103.890 E3.21369
G1 X77.562 Y102.602 E3.25614
G1 X77.437 Y101.304 E3.29858
G1 X77.395 Y100.000 E3.34102
G1 X77.437 Y98.696 E3.38346
G1 X77.557 Y97.446 E3.42433
G1 X77.770 Y96.110 E3.46835
G1 X78.060 Y94.838 E3.51079
G1 X78.431 Y93.587 E3.55323
G1 X78.882 Y92.363 E3.59567
G1 X79.410 Y91.170 E3.63812
G1 X79.991 Y90.057 E3.67898
G1 X80.690 Y88.898 E3.72300
G1 X81.436 Y87.828 E3.76544
G1 X82.249 Y86.808 E3.80788
G1 X83.126 Y85.843 E3.85033
G1 X84.063 Y84.935 E3.89277
G1 X85.057 Y84.090 E3.93521
G1 X86.102 Y83.309 E3.97765
G1 X87.195 Y82.598 E4.02010
G1 X88.332 Y81.958 E4.06254
G1 X89.507 Y81.392 E4.10498
G1 X90.717 Y80.902 E4.14742
G1 X91.955 Y80.491 E4.18987
G1 X93.217 Y80.160 E4.23231
G1 X94.497 Y79.911 E4.27475
G1 X95.871 Y79.738 E4.31981
G1 X97.091 Y79.660 E4.35959
G1 X98.350 Y79.659 E4.40056
G1 X99.704 Y79.744 E4.44467 F378.000
G1 X100.993 Y79.911 E4.48696
G1 X102.273 Y80.160 E4.52940
G1 X103.535 Y80.491 E4.57184
G1 X104.727 Y80.887 E4.61271
G1 X105.982 Y81.392 E4.65673
G1 X107.158 Y81.958 E4.69917
G1 X108.252 Y82.574 E4.74003
G1 X109.388 Y83.309 E4.78405
G1 X110.433 Y84.090 E4.82649
G1 X111.389 Y84.904 E4.86735
G1 X112.363 Y85.843 E4.91138
G1 X113.240 Y86.808 E4.95382
G1 X114.054 Y87.828 E4.99626
G1 X114.800 Y88.898 E5.03870
G1 X115.476 Y90.014 E5.08115
G1 X116.080 Y91.170 E5.12359
G1 X116.608 Y92.363 E5.16603
G1 X117.058 Y93.587 E5.20847
G1 X117.430 Y94.838 E5.25092
G1 X117.720 Y96.110 E5.29336
G1 X117.928 Y97.398 E5.33580
G1 X118.053 Y98.696 E5.37824
G1 X118.095 Y100.000 E5.42069
G1 X118.066 Y100.908 E5.45024
G1 F1800.000 E4.45024
G92 E0
G1 X98.244 Y79.171 F7800.000
G1 X97.954 Y113.302 F7800.000
G1 E1.00000 F1800.000
G1 X98.223 Y114.716 E1.04680 F540.000
G1 X98.277 Y114.826 E1.05079
G1 X98.385 Y114.943 E1.05597
G1 X98.689 Y115.126 E1.06753
G1 X97.746 Y116.768 E1.12915
G1 X96.794 Y115.111 E1.19131
G1 X97.083 Y114.939 E1.20226
G1 X97.189 Y114.821 E1.20743
G1 X97.239 Y114.718 E1.21114
G1 X97.518 Y113.301 E1.25812
G1 X97.879 Y113.302 E1.26987
G1 F1800.000 E0.26987
G92 E0
G1 X97.738 Y106.571 F7800.000
G1 E1.00000 F1800.000
G1 X96.589 Y104.027 E1.09080 F540.000
G1 X96.442 Y103.783 E1.10006
G1 X96.720 Y103.493 E1.11313
G1 X97.124 Y103.705 E1.12799
G1 X97.435 Y103.795 E1.13851
G1 X97.765 Y103.825 E1.14930
G1 X98.095 Y103.789 E1.16008
G1 X98.358 Y103.707 E1.16905
G1 X98.752 Y103.503 E1.18348
G1 X99.029 Y103.793 E1.19654
G1 X98.887 Y104.031 E1.20556
G1 X97.769 Y106.502 E1.29382
G1 X93.936 Y99.166 F7800.000
G1 X91.919 Y96.354 E1.40642 F540.000
G1 X94.700 Y96.622 E1.49733
G1 X94.922 Y96.618 E1.50453
G1 X95.028 Y97.017 E1.51798
G1 X94.724 Y97.186 E1.52930
G1 X94.483 Y97.388 E1.53953
G1 X94.285 Y97.629 E1.54968
G1 X94.134 Y97.906 E1.55991
G1 X94.028 Y98.260 E1.57195
G1 X93.944 Y99.092 E1.59914
G1 F1800.000 E0.59914
G92 E0
G1 X100.562 Y96.621 F7800.000
G1 E1.00000 F1800.000
G1 X100.793 Y96.620 E1.00752 F540.000
G1 X103.570 Y96.354 E1.09830
G1 X101.554 Y99.164 E1.21085
G1 X101.462 Y98.252 E1.24070
G1 X101.352 Y97.898 E1.25275
G1 X101.199 Y97.620 E1.26307
G1 X101.000 Y97.380 E1.27321
G1 X100.760 Y97.181 E1.28335
G1 X100.462 Y97.017 E1.29444
G1 X100.543 Y96.694 E1.30528
G1 F1800.000 E0.30528
G92 E0
G1 X109.247 Y92.837 F7800.000
G1 E1.00000 F1800.000
G1 X110.387 Y91.847 E1.04913 F540.000
G1 X110.453 Y91.752 E1.05290
G1 X110.504 Y91.595 E1.05826
G1 X110.509 Y91.301 E1.06784
G1 X112.375 Y91.301 E1.12855
G1 X111.442 Y92.925 E1.18948
G1 X111.148 Y92.760 E1.20045
G1 X110.992 Y92.726 E1.20564
G1 X110.878 Y92.734 E1.20936
G1 X109.463 Y93.214 E1.25797
G1 X109.284 Y92.902 E1.26966
G1 F1800.000 E0.26966
G92 E0
G1 X118.599 Y97.514 F7800.000
G1 E1.00000 F1800.000
G1 X118.940 Y97.359 E1.01219 F540.000
G1 X119.208 Y97.640 E1.02483
G1 X119.531 Y97.867 E1.03768
G1 X119.419 Y98.243 E1.05044
G1 X118.670 Y98.243 E1.07482
G1 X118.607 Y97.589 E1.09620
G1 X118.670 Y101.757 F7800.000
G1 X119.419 Y101.757 E1.12059 F540.000
G1 X119.531 Y102.133 E1.13335
G1 X119.208 Y102.360 E1.14620
G1 X118.940 Y102.641 E1.15884
G1 X118.599 Y102.486 E1.17103
G1 X118.662 Y101.832 E1.19241
G1 X122.377 Y101.795 F7800.000
G1 X122.377 Y98.205 E1.30918 F540.000
G1 X122.794 Y98.428 E1.32458
G1 X122.944 Y98.551 E1.33088
G1 X123.066 Y98.701 E1.33718
G1 X123.158 Y98.872 E1.34348
G1 X123.214 Y99.057 E1.34978
G1 X123.238 Y99.299 E1.35770
G1 X123.238 Y100.701 E1.40329
G1 X123.214 Y100.943 E1.41121
G1 X123.158 Y101.128 E1.41751
G1 X123.066 Y101.299 E1.42381
G1 X122.944 Y101.449 E1.43011
G1 X122.794 Y101.572 E1.43641
G1 X122.443 Y101.759 E1.44937
G1 F1800.000 E0.44937
G92 E0
G1 X105.429 Y100.755 F7800.000
G1 E1.00000 F1800.000
G1 X102.460 Y105.923 E1.19389 F540.000
G1 X102.033 Y105.746 E1.20893
G1 X102.559 Y103.810 E1.27420
G1 X102.615 Y103.510 E1.28410
G1 X102.607 Y103.129 E1.29653
G1 X102.537 Y102.816 E1.30694
G1 X102.407 Y102.489 E1.31839
G1 X102.970 Y102.333 E1.33741
G1 X103.343 Y102.143 E1.35102
G1 X103.554 Y101.970 E1.35991
G1 X105.065 Y100.475 E1.42906
G1 X105.369 Y100.709 E1.44156
G1 X107.932 Y97.716 F7800.000
G1 X101.024 Y109.742 E1.89280 F540.000
G1 X100.634 Y109.639 E1.90592
G1 X100.631 Y108.556 E1.94117
G1 X100.666 Y108.288 E1.94995
G1 X101.919 Y103.661 E2.10592
G1 X101.957 Y103.457 E2.11264
G1 X101.951 Y103.208 E2.12075
G1 X101.907 Y103.011 E2.12733
G1 X101.837 Y102.835 E2.13349
G1 X101.727 Y102.659 E2.14026
G1 X101.577 Y102.499 E2.14738
G1 X101.397 Y102.373 E2.15454
G1 X101.203 Y102.287 E2.16142
G1 X101.016 Y102.243 E2.16769
G1 X100.809 Y102.229 E2.17443
G1 X100.557 Y102.264 E2.18272
G1 X100.099 Y102.428 E2.19854
G1 X100.046 Y101.720 E2.22166
G1 X99.924 Y101.294 E2.23609
G1 X99.772 Y100.918 E2.24928
G1 X100.307 Y100.858 E2.26679
G1 X100.721 Y100.728 E2.28090
G1 X101.163 Y100.490 E2.29722
G1 X101.252 Y100.971 E2.31313
G1 X101.317 Y101.129 E2.31869
G1 X101.425 Y101.320 E2.32583
G1 X101.590 Y101.511 E2.33405
G1 X101.755 Y101.635 E2.34075
G1 X101.950 Y101.729 E2.34780
G1 X102.160 Y101.782 E2.35484
G1 X102.366 Y101.794 E2.36156
G1 X102.544 Y101.771 E2.36741
G1 X102.733 Y101.718 E2.37380
G1 X102.974 Y101.595 E2.38260
G1 X103.120 Y101.475 E2.38874
G1 X106.460 Y98.170 E2.54161
G1 X106.605 Y98.046 E2.54781
G1 X107.648 Y97.431 E2.58721
G1 X107.879 Y97.663 E2.59786
G1 F1800.000 E1.59786
G92 E0
G1 X100.495 Y93.071 F7800.000
G1 E1.00000 F1800.000
G1 X98.489 Y93.621 E1.06768 F540.000
G1 X98.103 Y93.889 E1.08297
G1 X97.746 Y94.247 E1.09941
G1 X97.384 Y93.889 E1.11599
G1 X97.034 Y93.660 E1.12957
G1 X96.778 Y93.562 E1.13849
G1 X94.991 Y93.070 E1.19880
G1 X95.052 Y92.615 E1.21375
G1 X100.434 Y92.615 E1.38884
G1 X100.485 Y92.996 E1.40135
G1 F1800.000 E0.40135
G92 E0
G1 X98.828 Y96.411 F7800.000
G1 E1.00000 F1800.000
G1 X98.458 Y96.661 E1.01455 F540.000
G1 X98.155 Y96.915 E1.02740
G1 X97.745 Y97.408 E1.04825
G1 X97.335 Y96.915 E1.06910
G1 X97.032 Y96.661 E1.08195
G1 X96.650 Y96.403 E1.09695
G1 X97.059 Y96.056 E1.11440
G1 X97.223 Y95.835 E1.12336
G1 X97.307 Y95.657 E1.12975
G1 X97.358 Y95.492 E1.13539
G1 X97.383 Y95.287 E1.14210
G1 X97.366 Y95.071 E1.14915
G1 X97.308 Y94.863 E1.15617
G1 X97.215 Y94.679 E1.16289
G1 X97.107 Y94.537 E1.16869
G1 X96.968 Y94.400 E1.17504
G1 X96.741 Y94.252 E1.18384
G1 X96.565 Y94.185 E1.18999
G1 X92.039 Y92.940 E1.34271
G1 X91.857 Y92.875 E1.34899
G1 X90.917 Y92.347 E1.38406
G1 X91.021 Y91.958 E1.39718
G1 X104.472 Y91.958 E1.83480
G1 X104.577 Y92.347 E1.84792
G1 X103.633 Y92.877 E1.88312
G1 X103.445 Y92.943 E1.88962
G1 X98.771 Y94.224 E2.04727
G1 X98.520 Y94.399 E2.05724
G1 X98.378 Y94.539 E2.06371
G1 X98.276 Y94.674 E2.06922
G1 X98.183 Y94.857 E2.07592
G1 X98.123 Y95.066 E2.08298
G1 X98.106 Y95.281 E2.09000
G1 X98.130 Y95.486 E2.09671
G1 X98.182 Y95.658 E2.10255
G1 X98.329 Y95.922 E2.11238
G1 X98.429 Y96.051 E2.11768
G1 X98.773 Y96.360 E2.13274
G1 F1800.000 E1.13274
G92 E0
G1 X93.080 Y102.483 F7800.000
G1 E1.00000 F1800.000
G1 X92.959 Y102.769 E1.01010 F540.000
G1 X92.883 Y103.066 E1.02007
G1 X92.861 Y103.485 E1.03372
G1 X92.904 Y103.755 E1.04261
G1 X93.394 Y105.639 E1.10595
G1 X92.968 Y105.813 E1.12090
G1 X90.065 Y100.759 E1.31052
G1 X90.429 Y100.479 E1.32546
G1 X91.910 Y101.945 E1.39327
G1 X92.140 Y102.139 E1.40304
G1 X92.523 Y102.334 E1.41702
G1 X93.007 Y102.465 E1.43333
G1 X95.385 Y102.427 F7800.000
G1 X94.921 Y102.263 E1.44934 F540.000
G1 X94.750 Y102.240 E1.45494
G1 X94.530 Y102.239 E1.46210
G1 X94.284 Y102.286 E1.47025
G1 X94.096 Y102.367 E1.47692
G1 X93.917 Y102.488 E1.48395
G1 X93.766 Y102.642 E1.49097
G1 X93.653 Y102.815 E1.49769
G1 X93.582 Y102.982 E1.50360
G1 X93.534 Y103.170 E1.50991
G1 X93.520 Y103.441 E1.51874
G1 X93.550 Y103.628 E1.52487
G1 X94.730 Y108.168 E1.67750
G1 X94.764 Y108.356 E1.68374
G1 X94.776 Y109.496 E1.72082
G1 X94.386 Y109.600 E1.73394
G1 X87.560 Y97.717 E2.17981
G1 X87.844 Y97.432 E2.19289
G1 X88.886 Y98.046 E2.23223
G1 X89.035 Y98.174 E2.23864
G1 X92.354 Y101.460 E2.39058
G1 X92.510 Y101.592 E2.39723
G1 X92.758 Y101.718 E2.40629
G1 X92.951 Y101.772 E2.41278
G1 X93.122 Y101.793 E2.41839
G1 X93.328 Y101.782 E2.42513
G1 X93.539 Y101.729 E2.43220
G1 X93.735 Y101.635 E2.43926
G1 X93.900 Y101.511 E2.44598
G1 X94.022 Y101.379 E2.45181
G1 X94.175 Y101.121 E2.46158
G1 X94.237 Y100.970 E2.46691
G1 X94.325 Y100.489 E2.48280
G1 X94.794 Y100.738 E2.50009
G1 X95.210 Y100.865 E2.51422
G1 X95.698 Y100.916 E2.53019
G1 X95.465 Y101.619 E2.55429
G1 X95.390 Y102.353 E2.57829
G1 X94.281 Y103.057 F7800.000
G1 X94.235 Y103.126 E2.58101 F540.000
G1 X94.185 Y103.275 E2.58610
G1 X94.196 Y103.500 E2.59344
G1 X95.370 Y108.016 E2.74525
G1 X95.430 Y108.406 E2.75808
G1 X95.425 Y111.947 E2.87329
G1 X95.036 Y112.050 E2.88641
G1 X85.782 Y95.940 E3.49087
G1 X86.066 Y95.655 E3.50396
G1 X89.171 Y97.441 E3.62051
G1 X89.483 Y97.693 E3.63356
G1 X92.797 Y100.974 E3.78529
G1 X92.881 Y101.044 E3.78883
G1 X92.994 Y101.102 E3.79296
G1 X93.145 Y101.134 E3.79800
G1 X93.229 Y101.129 E3.80072
G1 X93.313 Y101.108 E3.80356
G1 X93.459 Y101.020 E3.80909
G1 X93.555 Y100.898 E3.81415
G1 X93.603 Y100.785 E3.81816
G1 X93.755 Y99.317 E3.86617
G1 X94.136 Y99.239 E3.87883
G1 X94.279 Y99.502 E3.88855
G1 X94.477 Y99.746 E3.89878
G1 X94.755 Y99.975 E3.91050
G1 X95.035 Y100.124 E3.92083
G1 X95.298 Y100.206 E3.92978
G1 X95.668 Y100.252 E3.94191
G1 X95.998 Y100.221 E3.95270
G1 X96.352 Y100.112 E3.96474
G1 X96.629 Y99.959 E3.97505
G1 X96.870 Y99.760 E3.98519
G1 X97.092 Y99.481 E3.99682
G1 X97.222 Y99.243 E4.00563
G1 X97.321 Y98.936 E4.01611
G1 X97.362 Y98.559 E4.02846
G1 X97.316 Y98.189 E4.04060
G1 X97.234 Y97.926 E4.04956
G1 X97.086 Y97.648 E4.05980
G1 X96.841 Y97.356 E4.07222
G1 X96.602 Y97.164 E4.08219
G1 X96.335 Y97.020 E4.09207
G1 X95.996 Y96.918 E4.10358
G1 X95.677 Y96.888 E4.11401
G1 X95.431 Y96.912 E4.12204
G1 X95.289 Y96.533 E4.13519
G1 X96.581 Y95.600 E4.18705
G1 X96.656 Y95.499 E4.19115
G1 X96.713 Y95.355 E4.19617
G1 X96.716 Y95.186 E4.20168
G1 X96.693 Y95.102 E4.20450
